X:70
T:The First Noel
%%stretchlast false
M:3/4
L:1/4
K:C clef=C1
"^I"[CGce]/ "^ii7³"[CFcd]/ "^I"[CEGc]3/2 [CEGd]/ | "^vi"[A,ce]/ "^IV¹"[A,cf]/ "^V"[G,Bdg] [GBdg] | "^ii¹"[FAda]/ "^viiø7²"[FAdb]/ "^I¹"[EGgc'] "^iii"[EGgb] | "^IV"[FAfa]/ [FBfa]/ "^I"[Cceg]2 | "^IV"[FAca]/ "^V7³"[FGdb]/ "^I¹"[EGgc'] "^Imaj7"[CGeb] | "^viiø7¹"[DBfa] "^I¹"[Ecg] "^IV"[FAca] | "^vii°¹"[DFfb] "^I¹"[EGec']/ "^I"[FGec']/ "^I²"[Gceg] | "^v7"[Gdf] "^I"[CGce]2 | "^iii¹"[G,GBe]/ "^V7"[G,FBd]/ "^I"[CEGc]3/2 [CEGd]/ | "^vi"[A,ce]/ "^IV¹"[A,cf]/ "^i"[G,cdg] "^V"[GBdg] | "^ii¹"[FAda]/ "^viiø7²"[FAdb]/ "^I¹"[EGgc'] "^iii"[EGgb] | "^IV"[FAfa]/ [FBfa]/ "^I"[Cceg]2 | "^IV"[FAca]/ "^V7³"[FGdb]/ "^I¹"[EGgc'] "^Imaj7"[CGeb] | "^viiø7¹"[DBfa] "^I¹"[Ecg] "^IV"[Fcfa] | "^vii°¹"[Ddfb] "^I¹"[EGec']/ "^I"[FGec']/ "^I²"[Gceg] | "^v7"[G,Gdf] "^I"[CGce]2 | "^iii¹"[G,GBe]/ "^V7"[G,FBd]/ "^I"[CEGc]3/2 [CEGd]/ | "^vi"[A,Ace]/ "^IV¹"[A,Acf]/ "^iii"[EGBg]2 | "^I"[CGec']/ "^Imaj7"[CGeb]/ "^IV"[FAfa]3/2 "^V"[GBfa]/ | "^IV¹"[Acfa]/ "^viiø7"[Bdfa]/ "^I"[ceg]2 | "^V¹"[Bdg] "^vi"[Acec'] "^Imaj7²"[Gceb] | "^IV"[Fcfa] "^I"[ceg] "^vi¹"[Ccea] | "^vii°¹"[DFfb] "^I¹"[EGec']/ "^I"[FGec']/ "^iii¹"[Geg] | "^v7"[G,Gdf] "^I"[CGce]2 |]
